actions/22x22-light/depth8to16.svg

<svg viewBox="0 0 22 22" xmlns="http://www.w3.org/2000/svg"><path d="m5.3945312 3c-.559076 0-1.0203346.1715782-1.3828124.515625-.3624779.3379031-.5429688.7615579-.5429688 1.2714844 0 .2580351.0768764.5084428.2304688.7480468.1535923.2334604.3502397.4264859.5898437.5800782v.0371094c-.3071846.1535923-.5556393.3644431-.7460937.6347656-.1904545.2641788-.2871094.5716845-.2871094.921875 0 .5345013.2075132.9832252.6191406 1.3457031s.9174493.5429687 1.5195312.5429687c.602082 0 1.109857-.1804908 1.5214844-.5429687.4116275-.3624779.6171875-.8112018.6171875-1.3457031 0-.3501905-.0966549-.6576962-.2871093-.921875-.1904545-.2703225-.4389092-.4811733-.7460938-.6347656v-.0371094c.239604-.1535923.4362514-.3466178.5898438-.5800782.1535923-.239604.2304687-.4900117.2304687-.7480468 0-.5099265-.1804909-.9335813-.5429687-1.2714844-.3624779-.3440468-.8237365-.515625-1.3828126-.515625zm0 .8105469c.3071847 0 .5592613.0857891.7558594.2578125.2027419.1720234.3046875.4062746.3046875.7011718 0 .2948973-.1019456.5344393-.3046875.71875-.1965981.1781671-.4486747.2675782-.7558594.2675782-.3071846 0-.5628831-.0894111-.765625-.2675782-.1965981-.1843107-.2949218-.4238527-.2949218-.71875 0-.2948972.0983237-.5291484.2949218-.7011718.2027419-.1720234.4584404-.2578125.765625-.2578125zm0 2.7382812c.3563342 0 .6565961.1036145.9023438.3125.2457477.2088856.3691406.4751656.3691406.8007813 0 .3317594-.1233929.6036144-.3691406.8125-.2457477.2088855-.5460096.3125-.9023438.3125-.3563341 0-.656596-.1036145-.9023437-.3125-.2457477-.2088856-.3691406-.4807406-.3691406-.8125 0-.3256157.1233929-.5918957.3691406-.8007813.2457477-.2088855.5460096-.3125.9023437-.3125z" fill="#da4453" transform="matrix(1.000000000556 0 0 1.000000000556 .000001848168 -.000001331005)"/><path d="m16.873047 12.402344-1.714844 2.533203c-.491495.718812-.736328 1.369474-.736328 1.953125 0 .552932.201938 1.044551.607422 1.474609.411627.423915.931937.636719 1.558594.636719.58365 0 1.08585-.212804 1.509765-.636719.430059-.423915.646485-.915533.646485-1.474609 0-.571364-.207514-1.055738-.619141-1.455078-.411627-.405484-.86202-.607422-1.353516-.607422-.313328 0-.547579.048185-.701172.146484l-.017578-.017578 1.501954-2.083984zm-4.199219.146484-1.851562.867188.322265.71875 1.22461-.535157v5.253907h.847656v-6.304688zm3.914063 3.06836c.356334 0 .660218.127014.912109.378906.258035.245747.386719.546009.386719.902344 0 .362477-.128684.666361-.386719.912109-.251891.245748-.555775.369141-.912109.369141-.362478 0-.673606-.123393-.931641-.369141-.251891-.245748-.376953-.549632-.376953-.912109 0-.356335.128684-.656597.386719-.902344.258035-.251892.56554-.378906.921875-.378906z" fill="#1d99f3" transform="matrix(1.000000000556 0 0 1.000000000556 .000000276638 .000003761322)"/><path d="m10.685547 3.9570312c-.614468.086892-.8697497.8697409-.109375 1.1582032 1.398732.1780888 2.705015.9686995 3.490234 2.2695312.228915.3792153.393973.779156.507813 1.1855469l-.611328.0058594c-.318181.0028278-.43451.2286542-.261719.5058593l1.189453 1.9042968c.173159.277705.438557.277677.59375 0l1.080078-1.9316405c.155306-.2778084.023334-.5008087-.294922-.4980469v-.0019531l-1.183593.0117187.714843-.015625c-.136962-.613616-.367919-1.2149458-.710937-1.7832031-.935615-1.549975-2.46531-2.5230219-4.121094-2.8027343-.100504-.0194251-.195422-.0202257-.283203-.0078126zm-5.5039064 6.8222658c-.1076752.000201-.2134193.070146-.2910156.208984l-1.0800781 1.931641c-.1553058.277808-.0233343.500809.2949219.498047v.001953l1.1835937-.011719-.7148437.013672c.1369623.613616.3698719 1.216899.7128906 1.785156.9356143 1.549975 2.4633567 2.521069 4.1191406 2.800781.804034.155401 1.261578-.818766.3925781-1.148437-1.398732-.178089-2.7050147-.9687-3.4902343-2.269531-.2289148-.379215-.3939726-.779156-.5078126-1.185547l.6113282-.005859c.3181807-.002828.43451-.228655.2617187-.50586l-1.1894531-1.904297c-.0865795-.138852-.1950591-.209186-.3027344-.208984z" fill="#4d4d4d" transform="matrix(.999999975621 0 0 .999999975621 -.000003010548 -.00000383525)"/></svg>

<?xml version="1.0" encoding="UTF-8" standalone="no"?>
<svg
   xmlns:dc="http://purl.org/dc/elements/1.1/"
   xmlns:cc="http://creativecommons.org/ns#"
   xmlns:rdf="http://www.w3.org/1999/02/22-rdf-syntax-ns#"
   xmlns:svg="http://www.w3.org/2000/svg"
   xmlns="http://www.w3.org/2000/svg"
   xmlns:sodipodi="http://sodipodi.sourceforge.net/DTD/sodipodi-0.dtd"
   xmlns:inkscape="http://www.inkscape.org/namespaces/inkscape"
   viewBox="0 0 22 22"
   id="svg2"
   version="1.1"
   inkscape:version="0.91 r13725"
   sodipodi:docname="depth8to16.svg">
  <metadata
     id="metadata16">
    <rdf:RDF>
      <cc:Work
         rdf:about="">
        <dc:format>image/svg+xml</dc:format>
        <dc:type
           rdf:resource="http://purl.org/dc/dcmitype/StillImage" />
        <dc:title></dc:title>
      </cc:Work>
    </rdf:RDF>
  </metadata>
  <sodipodi:namedview
     pagecolor="#ffffff"
     bordercolor="#666666"
     borderopacity="1"
     objecttolerance="10"
     gridtolerance="10"
     guidetolerance="10"
     inkscape:pageopacity="0"
     inkscape:pageshadow="2"
     inkscape:window-width="640"
     inkscape:window-height="480"
     id="namedview14"
     showgrid="false"
     showguides="false"
     inkscape:zoom="29.954545"
     inkscape:cx="5.0576631"
     inkscape:cy="11"
     inkscape:current-layer="layer1" />
  <defs
     id="defs3051">
    <style
       type="text/css"
       id="current-color-scheme">
      .ColorScheme-Text {
        color:#4d4d4d
      }
      </style>
  </defs>
  <g
     inkscape:label="Layer 1"
     inkscape:groupmode="layer"
     id="layer1"
     transform="translate(-544.57141,-742.93359)">
    <g
       id="g4212"
       transform="translate(-0.52358024,-0.03300128)">
      <g
         id="g4221"
         transform="matrix(0.94261801,0,0,0.94261801,31.674381,43.216973)">
        <g
           style="font-style:normal;font-weight:normal;font-size:7.5px;line-height:125%;font-family:sans-serif;letter-spacing:0px;word-spacing:0px;fill:#da4453;fill-opacity:1;stroke:none;stroke-width:1px;stroke-linecap:butt;stroke-linejoin:miter;stroke-opacity:1"
           id="text4146"
           transform="matrix(1.3035382,0,0,1.3035382,-139.97056,-236.92576)">
          <path
             style="font-style:normal;font-variant:normal;font-weight:normal;font-stretch:normal;font-family:'Product Sans';-inkscape-font-specification:'Product Sans';fill:#da4453;fill-opacity:1"
             d="M 5.3945312 3 C 4.8354552 3 4.3741966 3.1715782 4.0117188 3.515625 C 3.6492409 3.8535281 3.46875 4.2771829 3.46875 4.7871094 C 3.46875 5.0451445 3.5456264 5.2955522 3.6992188 5.5351562 C 3.8528111 5.7686166 4.0494585 5.9616421 4.2890625 6.1152344 L 4.2890625 6.1523438 C 3.9818779 6.3059361 3.7334232 6.5167869 3.5429688 6.7871094 C 3.3525143 7.0512882 3.2558594 7.3587939 3.2558594 7.7089844 C 3.2558594 8.2434857 3.4633726 8.6922096 3.875 9.0546875 C 4.2866274 9.4171654 4.7924493 9.5976562 5.3945312 9.5976562 C 5.9966132 9.5976562 6.5043882 9.4171654 6.9160156 9.0546875 C 7.3276431 8.6922096 7.5332031 8.2434857 7.5332031 7.7089844 C 7.5332031 7.3587939 7.4365482 7.0512882 7.2460938 6.7871094 C 7.0556393 6.5167869 6.8071846 6.3059361 6.5 6.1523438 L 6.5 6.1152344 C 6.739604 5.9616421 6.9362514 5.7686166 7.0898438 5.5351562 C 7.2434361 5.2955522 7.3203125 5.0451445 7.3203125 4.7871094 C 7.3203125 4.2771829 7.1398216 3.8535281 6.7773438 3.515625 C 6.4148659 3.1715782 5.9536073 3 5.3945312 3 z M 5.3945312 3.8105469 C 5.7017159 3.8105469 5.9537925 3.896336 6.1503906 4.0683594 C 6.3531325 4.2403828 6.4550781 4.474634 6.4550781 4.7695312 C 6.4550781 5.0644285 6.3531325 5.3039705 6.1503906 5.4882812 C 5.9537925 5.6664483 5.7017159 5.7558594 5.3945312 5.7558594 C 5.0873466 5.7558594 4.8316481 5.6664483 4.6289062 5.4882812 C 4.4323081 5.3039705 4.3339844 5.0644285 4.3339844 4.7695312 C 4.3339844 4.474634 4.4323081 4.2403828 4.6289062 4.0683594 C 4.8316481 3.896336 5.0873466 3.8105469 5.3945312 3.8105469 z M 5.3945312 6.5488281 C 5.7508654 6.5488281 6.0511273 6.6524426 6.296875 6.8613281 C 6.5426227 7.0702137 6.6660156 7.3364937 6.6660156 7.6621094 C 6.6660156 7.9938688 6.5426227 8.2657238 6.296875 8.4746094 C 6.0511273 8.6834949 5.7508654 8.7871094 5.3945312 8.7871094 C 5.0381971 8.7871094 4.7379352 8.6834949 4.4921875 8.4746094 C 4.2464398 8.2657238 4.1230469 7.9938688 4.1230469 7.6621094 C 4.1230469 7.3364937 4.2464398 7.0702137 4.4921875 6.8613281 C 4.7379352 6.6524426 5.0381971 6.5488281 5.3945312 6.5488281 z "
             transform="matrix(0.81384276,0,0,0.81384276,525.22106,751.24206)"
             id="path4169" />
        </g>
        <g
           style="font-style:normal;font-weight:normal;font-size:7.5px;line-height:125%;font-family:sans-serif;letter-spacing:0px;word-spacing:0px;fill:#1d99f3;fill-opacity:1;stroke:none;stroke-width:1px;stroke-linecap:butt;stroke-linejoin:miter;stroke-opacity:1"
           id="text4146-7"
           transform="matrix(1.3035382,0,0,1.3035382,-141.40199,-228.27249)">
          <path
             style="font-style:normal;font-variant:normal;font-weight:normal;font-stretch:normal;font-family:'Product Sans';-inkscape-font-specification:'Product Sans';fill:#1d99f3;fill-opacity:1"
             d="M 16.873047 12.402344 L 15.158203 14.935547 C 14.666708 15.654359 14.421875 16.305021 14.421875 16.888672 C 14.421875 17.441604 14.623813 17.933223 15.029297 18.363281 C 15.440924 18.787196 15.961234 19 16.587891 19 C 17.171541 19 17.673741 18.787196 18.097656 18.363281 C 18.527715 17.939366 18.744141 17.447748 18.744141 16.888672 C 18.744141 16.317308 18.536627 15.832934 18.125 15.433594 C 17.713373 15.02811 17.26298 14.826172 16.771484 14.826172 C 16.458156 14.826172 16.223905 14.874357 16.070312 14.972656 L 16.052734 14.955078 L 17.554688 12.871094 L 16.873047 12.402344 z M 12.673828 12.548828 L 10.822266 13.416016 L 11.144531 14.134766 L 12.369141 13.599609 L 12.369141 18.853516 L 13.216797 18.853516 L 13.216797 12.548828 L 12.673828 12.548828 z M 16.587891 15.617188 C 16.944225 15.617188 17.248109 15.744202 17.5 15.996094 C 17.758035 16.241841 17.886719 16.542103 17.886719 16.898438 C 17.886719 17.260915 17.758035 17.564799 17.5 17.810547 C 17.248109 18.056295 16.944225 18.179688 16.587891 18.179688 C 16.225413 18.179688 15.914285 18.056295 15.65625 17.810547 C 15.404359 17.564799 15.279297 17.260915 15.279297 16.898438 C 15.279297 16.542103 15.407981 16.241841 15.666016 15.996094 C 15.924051 15.744202 16.231556 15.617188 16.587891 15.617188 z "
             transform="matrix(0.81384276,0,0,0.81384276,526.31917,744.60377)"
             id="path4172" />
        </g>
        <path
           style="fill:currentColor;fill-opacity:1;stroke:none"
           class="ColorScheme-Text"
           d="M 10.685547 3.9570312 C 10.071079 4.0439232 9.8157973 4.8267721 10.576172 5.1152344 C 11.974904 5.2933232 13.281187 6.0839339 14.066406 7.3847656 C 14.295321 7.7639809 14.460379 8.1639216 14.574219 8.5703125 L 13.962891 8.5761719 C 13.64471 8.5789997 13.528381 8.8048261 13.701172 9.0820312 L 14.890625 10.986328 C 15.063784 11.264033 15.329182 11.264005 15.484375 10.986328 L 16.564453 9.0546875 C 16.719759 8.7768791 16.587787 8.5538788 16.269531 8.5566406 L 16.269531 8.5546875 L 15.085938 8.5664062 L 15.800781 8.5507812 C 15.663819 7.9371652 15.432862 7.3358354 15.089844 6.7675781 C 14.154229 5.2176031 12.624534 4.2445562 10.96875 3.9648438 C 10.868246 3.9454187 10.773328 3.9446181 10.685547 3.9570312 z M 5.1816406 10.779297 C 5.0739654 10.779498 4.9682213 10.849443 4.890625 10.988281 L 3.8105469 12.919922 C 3.6552411 13.19773 3.7872126 13.420731 4.1054688 13.417969 L 4.1054688 13.419922 L 5.2890625 13.408203 L 4.5742188 13.421875 C 4.7111811 14.035491 4.9440907 14.638774 5.2871094 15.207031 C 6.2227237 16.757006 7.7504661 17.7281 9.40625 18.007812 C 10.210284 18.163213 10.667828 17.189046 9.7988281 16.859375 C 8.4000961 16.681286 7.0938134 15.890675 6.3085938 14.589844 C 6.079679 14.210629 5.9146212 13.810688 5.8007812 13.404297 L 6.4121094 13.398438 C 6.7302901 13.39561 6.8466194 13.169783 6.6738281 12.892578 L 5.484375 10.988281 C 5.3977955 10.849429 5.2893159 10.779095 5.1816406 10.779297 z "
           transform="matrix(1.0608751,0,0,1.0608751,544.67515,742.34696)"
           id="path8-3" />
      </g>
    </g>
  </g>
</svg>
